X:55
T:Buttard Peas
A:Wyresdale, Lancashire
B:E and J Winder, 1835-41
L:1/8
M:C|
O:England
Z:Richard Robinson 
%%RRN:"Thomas Houghton's way of Playing it"
%%TranscriptionNotes:Some guesswork here owing to imperfect legibility
%%TUNEURL: http://www.leeds.ac.uk/music/Info/RRTuneBk/gettune/00000e8c.html
%%ID:00000e8c
K:G
Bddc/B/ ceed/c/ | Bddc/B/ cAA2 |\
Bddc/B/ ceed/c/ | BdAc BGG2 ::
Bddf (g/f/)(e/g/)g2 | Bddc/B/ BAA2 |\
Bddf (g/f/)(e/f/) g2 | BdAc BGG2 |]
